X:654
T: WIR WOLLEN VERGNUEGT UND EINSAM LEBEN
N: E0602B
O: Europa, Mitteleuropa, Deutschland, Hessen, Wetterau; Taunus, Wuerges
R: Liebes - Lied
M: 3/4
L: 1/8
K: G
D2 | G2D2B2 | B2G2
de | d2c2B2 | B2A2
d2 | c2A2D2 | G2B2
d2 | c2A2D2 | G2B2
G2 | e2e2e2 | d3c
Bd | c2B2A2 | G4

